X:1
T:7/8 des Balkans
C:Christine Fortin
Z:robin.beech@mcgill.ca
M:7/8
L:1/8
K:Aphr
AG AF AAE | DF Ad ffe | ^cA ce bba | gf ed ^ceB |
AG AF AAE | DF Ad ffe | ^cA ce bba | gf e^c d3 ::
^cA BA cAA | dA eA fed | ^cA BA cAA | GG GF GAB |
^cA BA cAA | dA eA fed | gg gf fed |1 ^cG BG AAA :|2 ^cG BG A/G/F/E/D |]
